Numix-GalliumOS/22/mimetypes/application-x-osm+xml.svg

<?xml version="1.0" encoding="UTF-8" standalone="no"?>
<svg
   xmlns:dc="http://purl.org/dc/elements/1.1/"
   xmlns:cc="http://creativecommons.org/ns#"
   xmlns:rdf="http://www.w3.org/1999/02/22-rdf-syntax-ns#"
   xmlns:svg="http://www.w3.org/2000/svg"
   xmlns="http://www.w3.org/2000/svg"
   xmlns:sodipodi="http://sodipodi.sourceforge.net/DTD/sodipodi-0.dtd"
   xmlns:inkscape="http://www.inkscape.org/namespaces/inkscape"
   width="22"
   height="22"
   viewBox="0 0 22 22"
   id="svg2"
   version="1.1"
   inkscape:version="0.91 r13725"
   sodipodi:docname="application-x-osm+xml.svg">
  <metadata
     id="metadata22">
    <rdf:RDF>
      <cc:Work
         rdf:about="">
        <dc:format>image/svg+xml</dc:format>
        <dc:type
           rdf:resource="http://purl.org/dc/dcmitype/StillImage" />
        <dc:title></dc:title>
      </cc:Work>
    </rdf:RDF>
  </metadata>
  <defs
     id="defs20" />
  <sodipodi:namedview
     pagecolor="#ffffff"
     bordercolor="#666666"
     borderopacity="1"
     objecttolerance="10"
     gridtolerance="10"
     guidetolerance="10"
     inkscape:pageopacity="0"
     inkscape:pageshadow="2"
     inkscape:window-width="1366"
     inkscape:window-height="713"
     id="namedview18"
     showgrid="false"
     inkscape:zoom="1"
     inkscape:cx="4.3276946"
     inkscape:cy="8.0052481"
     inkscape:window-x="0"
     inkscape:window-y="28"
     inkscape:window-maximized="1"
     inkscape:current-layer="svg2">
    <inkscape:grid
       type="xygrid"
       id="grid3010"
       empspacing="5"
       visible="true"
       enabled="true"
       snapvisiblegridlinesonly="true" />
  </sodipodi:namedview>
  <path
     style="fill:#dcdcdc"
     d="M 4,0 C 3.527343,0 3,0.527344 3,1 l 0,20 c 0,0.445312 0.554687,1 1,1 l 14,0 c 0.445313,0 0.992367,-0.554753 1,-1 L 19,6 13,0 z"
     id="path4"
     inkscape:connector-curvature="0"
     sodipodi:nodetypes="ssssssccs" />
  <path
     style="fill:#000000;fill-opacity:0.19599998"
     d="m 14,6 5,5 0,-5 z"
     id="path6"
     inkscape:connector-curvature="0"
     sodipodi:nodetypes="cccc" />
  <path
     style="fill:#ffffff;fill-opacity:0.39200003"
     d="m 13,0 6,6 -5,0 C 13.554688,6 13,5.445312 13,5 z"
     id="path8"
     inkscape:connector-curvature="0"
     sodipodi:nodetypes="ccssc" />
  <path
     style="fill:#888888;fill-opacity:1;fill-rule:evenodd;stroke:none;stroke-width:1px;stroke-linecap:butt;stroke-linejoin:miter;stroke-opacity:1"
     d="m 11,7 c -2.4852825,0 -4.5,2.014719 -4.5,4.5 0,2.485281 3,7.5 4.5,7.5 1.5,0 4.5,-5.014719 4.5,-7.5 C 15.5,9.014719 13.485281,7 11,7 Z m 0,1.999999 c 1.380712,0 2.499999,1.119289 2.499999,2.500001 C 13.499999,12.880713 12.380712,14 11,14 9.619288,14 8.4999995,12.880713 8.4999995,11.5 8.4999995,10.119288 9.619288,8.999999 11,8.999999 Z"
     id="path3338"
     inkscape:connector-curvature="0"
     sodipodi:nodetypes="sszsssssss" />
</svg>

<svg xmlns="http://www.w3.org/2000/svg" viewBox="0 0 22 22">
 <path d="m 4 0 c -0.473 0 -1 0.527 -1 1 l 0 20 c 0 0.445 0.555 1 1 1 l 14 0 c 0.445 0 0.992 -0.555 1 -1 l 0 -15 -6 -6 z" style="fill:#dcdcdc"/>
 <path d="m 14 6 5 5 0 -5 z" style="fill:#000;fill-opacity:0.196"/>
 <path d="m 13 0 6 6 -5 0 c -0.445 0 -1 -0.555 -1 -1 z" style="fill:#fff;fill-opacity:0.392"/>
 <path d="m 11 7 c -2.485 0 -4.5 2.01 -4.5 4.5 0 2.485 3 7.5 4.5 7.5 1.5 0 4.5 -5.01 4.5 -7.5 c 0 -2.485 -2.01 -4.5 -4.5 -4.5 m 0 2 c 1.381 0 2.5 1.119 2.5 2.5 c 0 1.381 -1.119 2.5 -2.5 2.5 -1.381 0 -2.5 -1.119 -2.5 -2.5 0 -1.381 1.119 -2.5 2.5 -2.5" style="fill:#888;fill-opacity:1;stroke:none;fill-rule:evenodd"/>
</svg>
